app/assets/images/gatherings-navbar.svg

<svg width="25" height="17" viewBox="0 0 25 17" fill="none" xmlns="http://www.w3.org/2000/svg">
<path d="M1.38889 2.77778C2.15595 2.77778 2.77778 2.15595 2.77778 1.38889C2.77778 0.621827 2.15595 0 1.38889 0C0.621827 0 0 0.621827 0 1.38889C0 2.15595 0.621827 2.77778 1.38889 2.77778Z" fill="#1F29A4"/>
<path d="M1.38889 9.72224C2.15595 9.72224 2.77778 9.10041 2.77778 8.33335C2.77778 7.56628 2.15595 6.94446 1.38889 6.94446C0.621827 6.94446 0 7.56628 0 8.33335C0 9.10041 0.621827 9.72224 1.38889 9.72224Z" fill="#1F29A4"/>
<path d="M1.38889 16.6667C2.15595 16.6667 2.77778 16.0449 2.77778 15.2778C2.77778 14.5107 2.15595 13.8889 1.38889 13.8889C0.621827 13.8889 0 14.5107 0 15.2778C0 16.0449 0.621827 16.6667 1.38889 16.6667Z" fill="#1F29A4"/>
<path d="M23.6944 6.94446H6.8611C6.14006 6.94446 5.55554 7.52897 5.55554 8.25001V8.41668C5.55554 9.13772 6.14006 9.72224 6.8611 9.72224H23.6944C24.4155 9.72224 25 9.13772 25 8.41668V8.25001C25 7.52897 24.4155 6.94446 23.6944 6.94446Z" fill="#1F29A4"/>
<path d="M23.6944 13.8889H6.8611C6.14006 13.8889 5.55554 14.4734 5.55554 15.1945V15.3611C5.55554 16.0822 6.14006 16.6667 6.8611 16.6667H23.6944C24.4155 16.6667 25 16.0822 25 15.3611V15.1945C25 14.4734 24.4155 13.8889 23.6944 13.8889Z" fill="#1F29A4"/>
<path d="M23.6944 0H6.8611C6.14006 0 5.55554 0.584517 5.55554 1.30556V1.47222C5.55554 2.19326 6.14006 2.77778 6.8611 2.77778H23.6944C24.4155 2.77778 25 2.19326 25 1.47222V1.30556C25 0.584517 24.4155 0 23.6944 0Z" fill="#1F29A4"/>
</svg>

<svg width="25" height="17" fill="none" xmlns="http://www.w3.org/2000/svg"><path d="M1.389 2.778a1.389 1.389 0 100-2.778 1.389 1.389 0 000 2.778zM1.389 9.722a1.389 1.389 0 100-2.778 1.389 1.389 0 000 2.778zM1.389 16.667a1.389 1.389 0 100-2.778 1.389 1.389 0 000 2.778zM23.694 6.944H6.861c-.72 0-1.305.585-1.305 1.306v.167c0 .72.584 1.305 1.305 1.305h16.833c.722 0 1.306-.584 1.306-1.305V8.25c0-.721-.584-1.306-1.306-1.306zM23.694 13.889H6.861c-.72 0-1.305.584-1.305 1.306v.166c0 .721.584 1.306 1.305 1.306h16.833c.722 0 1.306-.585 1.306-1.306v-.167c0-.72-.584-1.305-1.306-1.305zM23.694 0H6.861c-.72 0-1.305.585-1.305 1.306v.166c0 .721.584 1.306 1.305 1.306h16.833c.722 0 1.306-.585 1.306-1.306v-.166C25 .585 24.416 0 23.694 0z" fill="#1F29A4"/></svg>
